!!!COM: Mozart, Wolfgang Amadeus
!!!OTL: String Quartet No. 14 in G Major ("Spring")
!!!OMD: Allegro vivace assai
!!!OMV: 1
!!!SCT1: K<sup>1</sup> 387
!!!SCA: Chronologisch-thematisches Verzeichnis sämtlicher Tonwerke Wolfgang Amade Mozarts (L. von Köchel; 1862, 2/1905, 3/1937, 1947)
!!!SCT2: K<sup>6</sup> 387
!!!YOR: Breitkopf & Härtel Edition
!!!ENC: Frances Bennion
!!!CDT: 1756/1/27/-1791/12/5/
!!!OCY: Österreich
!!!YEC: Copyright (c) 1994, 2000 Center for Computer Assisted Research in the Humanities
!!!YEM: Rights to all derivative editions reserved.
!!!YEM: Refer to licensing agreement for further details.
!!!YEN: United States of America
**kern	**kern	**kern	**kern
*k[f#]	*k[f#]	*k[f#]	*k[f#]
*G:	*G:	*G:	*G:
*clefC	*clefF	*clefG	*clefG
*M4/4	*M4/4	*M4/4	*M4/4
2..r	2..r	2..r	2..r
8r	8r	8r	8g
=1	=1	=1	=1
4G	4g	4b	4dd
4B	4d	4g	4gg
4.A	4.c	4.cc	4gg
.	.	.	8ff#
8G	8e	8b	8ee
=2	=2	=2	=2
4F#	4A	4a	8dd
.	.	.	8dd#
4G#	4.e	[4b	8ee
.	.	.	8b
[4A	.	4b]	4dd
.	8g#	.	.
8A]	8a	8a	8cc
8r	8r	8r	8r
=3	=3	=3	=3
4AA	4A	2e	8.cc
.	.	.	32dd
.	.	.	32ee
4C	8E	.	16dd
.	.	.	16cc
.	8c	.	16b
.	.	.	16a
4.D	4B	4.d	4g
.	8A	.	8f#
8E	8G	8c#	8e
=4	=4	=4	=4
2F#	2A	[2d	8d
.	.	.	8dd
.	.	.	8cc#
.	.	.	8cc
[4G	4c	8d]	4a#
.	.	8f#	.
8G]	8B	8g	8b
8r	8r	8r	8r
=5	=5	=5	=5
2r	4a	1r	2r
.	8cc	.	.
.	16b	.	.
.	16a	.	.
4C	4f#	.	[4d 4A
8BB	8g	.	8d] 8B
8r	8r	.	8r
=6	=6	=6	=6
2r	2r	4a	1r
.	.	8cc	.
.	.	16b	.
.	.	16a	.
4c	4a [4d	4ff#	.
8B	8b 8d]	8gg	.
8r	8r	8r	.
=7	=7	=7	=7
2r	2r	2r	4aa
.	.	.	8ccc
.	.	.	16bb
.	.	.	16aa
2C#	2A	[2g	4ddd#
.	.	.	4eee
=8	=8	=8	=8
4D	4B	4g]	4.gg
4D#	4c	4f#	.
.	.	.	16bb
.	.	.	16aa
4E	4B	4g	4gg
4r	4r	4r	4r
=9	=9	=9	=9
2r	2r	2r	16g#
.	.	.	16a
.	.	.	16cc
.	.	.	16b
.	.	.	16dd
.	.	.	16cc
.	.	.	16b
.	.	.	16a
2C#	2B-	2g	8dd#
.	.	.	8ee
.	.	.	8ff#
.	.	.	8gg
=10	=10	=10	=10
4D	4B	4d	4.g
4DD	4F#	4c	.
.	.	.	16b
.	.	.	16a
4GG	4G	4B	4g
4r	4r	8r	4r
.	.	8G	.
=11	=11	=11	=11
4GG	4B	4d	2..r
4BB	4d	4g	.
4.AA	4.c	4g	.
.	.	8f#	.
8GG	8B	8e	8g
=12	=12	=12	=12
4FF#	4A	8d	4dd
.	.	8d#	.
8GG	4B	8e	4gg
8G	.	8B	.
4B	4r	4d	4gg
8A	[4d	8c	8ff#
8G	.	8B	8ee
=13	=13	=13	=13
4F#	8d]	4A	8dd
.	8a	.	8dd#
4G#	8b	4.r	8ee
.	8g#	.	8b
2A	4e	.	4dd
.	.	8g#	.
.	[4A	8a	8cc#
.	.	8e	8r
=14	=14	=14	=14
2D	4A]	4g	8r
.	.	.	8cc
.	2d	8f#	8dd
.	.	4r	8a
2G	.	.	4a#
.	.	8f#	.
.	[4B	8g	8b
.	.	8d#	8r
=15	=15	=15	=15
8r	8B]	8f#	8r
8E	8b	8e	8gg
8F#	8a	8r	8ff#
8G	8g	8b	8ee
8A	4f#	4.a	4dd
8AA	.	.	.
8A	8e	.	8cc#
8B	8d	8g#	8b
=16	=16	=16	=16
4c#	4e	4a	8a
.	.	.	8aa
4r	4r	4r	8gg#
.	.	.	8gg
4d	4f#	4a	8ff#
.	.	.	8ddd
4r	4r	4r	8ccc#
.	.	.	8ccc
=17	=17	=17	=17
1r	2r	8r	[1bb
.	.	8B	.
.	.	8c	.
.	.	8c#	.
.	8r	8d	.
.	8B	8d#	.
.	8c	8e	.
.	8c#	8e#	.
=18	=18	=18	=18
8r	8d	8f#	1bb_
8BB	8d#	8b	.
8C	4e	8a	.
8C#	.	8g	.
8D	8d	8f#	.
8D#	8a	8cc	.
8E	8g	8b	.
8F#	8f#	8a	.
=19	=19	=19	=19
4G	4e	4g	8bb]
.	.	.	8bb
2.r	2.r	4.r	8aa#
.	.	.	8aa
.	.	.	8gg#
.	.	8b	8gg
.	.	8a	8ff#
.	.	8g	8ee
=20	=20	=20	=20
8r	8r	8f#	8dd#
8G	8B	8g	8ee
8F#	8A	8a	8ff#
8E	8G	8b	8gg
8AA	4A	4f#	4dd
8A	.	.	.
[4B-	8r	8e	8cc#
.	8E	8G	8r
=21	=21	=21	=21
4B-]	2e	2g	8r
.	.	.	16gg
.	.	.	16ff#
4.r	.	.	16aa
.	.	.	16gg
.	.	.	16ff
.	.	.	16ee
.	4.r	4.r	4dd
8A	.	.	.
[4B-	.	.	8cc#
.	8E	8G	8r
=22	=22	=22	=22
4B-]	[2e	[2g	8r
.	.	.	16gg
.	.	.	16ff#
4.r	.	.	16aa
.	.	.	16gg
.	.	.	16ff
.	.	.	16ee
.	8e]	8g]	16dd
.	.	.	16cc#
8B-	4c#	4e	16gg
.	.	.	16ff#
[4A	.	.	16aa
.	.	.	16gg
.	8d	8f	16ff
.	.	.	16ee
=23	=23	=23	=23
8A]	8e	8g	16dd
.	.	.	16cc#
8B-	4c#	4e	16gg
.	.	.	16ff#
4.A	.	.	16aa
.	.	.	16gg
.	8d	8f	16ff
.	.	.	16ee
.	[2e	[2g	[2dd
8AA	.	.	.
8A	.	.	.
8A	.	.	.
=24	=24	=24	=24
4A	4e_	4g_	4dd]
2.r	16e]	16g]	16cc#
.	16d	16f#	16dd
.	16c#	16e	16ee
.	16B	16d	16ff#
.	4A	4c#	4gg
.	4r	8r	4r
.	.	8A	.
=25	=25	=25	=25
4D	4A	4f#	1r
4D	4A	4f#	.
2D	2A	16f#	.
.	.	16e#	.
.	.	16f#	.
.	.	16e#	.
.	.	8f#	.
.	.	8f#	.
=26	=26	=26	=26
8r	8r	4.a	1r
8DD	8F#	.	.
4.D	8f#	.	.
.	8A	8f#	.
.	8r	4.a	.
8DD	8F#	.	.
4D	8f#	.	.
.	8A	8f#	.
=27	=27	=27	=27
4GG	4B	4e	1r
4GG	4B	4e	.
2GG	2B	16e	.
.	.	16d#	.
.	.	16e	.
.	.	16d#	.
.	.	8e	.
.	.	8e	.
=28	=28	=28	=28
8r	8r	4.g	1r
8GG	8E	.	.
4.G	8B	.	.
.	8G	8e	.
.	8r	4.g	.
8GG	8E	.	.
4G	8e	.	.
.	8c#	8e	.
=29	=29	=29	=29
2F#	8r	4d	1r
.	4A	.	.
.	.	4d#	.
.	4A	.	.
2C#	.	4e	.
.	4A	.	.
.	.	4e#	.
.	[8A	.	.
=30	=30	=30	=30
4D	8A]	4f#	2..r
.	8d	.	.
4GG	16e	16g	.
.	16f#	16a	.
.	16g	16b	.
.	16e	16g	.
16AA	4d	4f#	.
16GG#	.	.	.
16AA	.	.	.
16GG#	.	.	.
8AA	8c#	8e	.
8r	8r	8r	8a
=31	=31	=31	=31
8r	4d	4a	4ff#
8D	.	.	.
8r	4d	4a	4ff#
8D	.	.	.
8r	16d	2a	16ff#
.	16c#	.	16ee#
8D	16d	.	16ff#
.	16c#	.	16ee#
8D	8d	.	8ff#
8r	8d	.	8ff#
=32	=32	=32	=32
8r	4.f#	8r	4.aa
8DD	.	8a	.
4.D	.	4.dd	.
.	8d	.	8ff#
.	4.f#	.	4.aa
8DD	.	8a	.
4D	.	4dd	.
.	8d	.	8ff#
=33	=33	=33	=33
8r	4c#	4a	4ee
8G	.	.	.
8r	4c#	4a	4ee
8G	.	.	.
8r	16c#	2a	16ee
.	16B#	.	16dd#
8G	16c#	.	16ee
.	16B#	.	16dd#
8G	8c#	.	8ee
8r	8c#	.	8ee
=34	=34	=34	=34
8r	4.e	8r	4.gg
8GG	.	8A	.
4.G	.	4.a	.
.	8c#	.	8ee
.	4.e	.	4.gg
8GG	.	8A	.
4G	.	[4a	.
.	8c#	.	8ee
=35	=35	=35	=35
2F#	4d	4a]	4dd
.	4a	4cc	4dd#
4G	4g	4b	4ee
4G#	4b	4dd	4ff
=36	=36	=36	=36
2A	[4a	4dd	4ff#
.	4a_ 4g	8ee	8gg
.	.	16dd	16ff#
.	.	16cc#	16ee
4d	4a] 4f#	4dd	16dd
.	.	.	16ee
.	.	.	16ff#
.	.	.	16gg
4r	4r	4r	16aa
.	.	.	16bb
.	.	.	16ccc#
.	.	.	16ddd
=37	=37	=37	=37
4BB	2F#	4d	4d
4AA	.	4d#	4cc
4GG	4G	4e	4b
4GG#	[4d	4f	4bb
=38	=38	=38	=38
2AA	4d]	4f#	4a
.	8e	8g	4ccc#
.	8G	16f#	.
.	.	16e	.
8DD	8F#	8d	8ddd
4.r	4.r	4.r	8r
.	.	.	16ddd
.	.	.	16ccc#
.	.	.	16bb
.	.	.	16aa
=39	=39	=39	=39
8c#	8e	8a	16gg#
.	.	.	16aa
8c#	8e	8a	16gg#
.	.	.	16aa
8c#	8e	8a	16gg#
.	.	.	16aa
8r	8r	8r	16bb
.	.	.	16gg
8d	8f#	8a	16ee#
.	.	.	16ff#
8d	8f#	8a	16ee#
.	.	.	16ff#
8d	8f#	8a	16ee#
.	.	.	16ff#
8r	8r	8r	16aa
.	.	.	16ff#
=40	=40	=40	=40
8G	8r	8r	16dd#
.	.	.	16ee
8r	8g	8b	16dd#
.	.	.	16ee
8E	8r	8r	16dd#
.	.	.	16ee
8r	8g	8b	16gg
.	.	.	16ee
4A	4a	4e	16dd
.	.	.	16cc#
.	.	.	16b
.	.	.	16a
4r	4r	16dd	16ddd
.	.	16cc#	16ccc#
.	.	16b	16bb
.	.	16a	16aa
=41	=41	=41	=41
8C#	8e 8A	16g#	16gg#
.	.	16a	16aa
8C#	8e 8A	16g#	16gg#
.	.	16a	16aa
8C#	8e 8A	16g#	16gg#
.	.	16a	16aa
8r	8r	16b	16bb
.	.	16g	16gg
8D	8d 8A	16e#	16ee#
.	.	16f#	16ff#
8D	8d 8A	16e#	16ee#
.	.	16f#	16ff#
8D	8d 8A	16e#	16ee#
.	.	16f#	16ff#
8r	8r	16a	16aa
.	.	16f#	16ff#
=42	=42	=42	=42
8GG	8r	16d#	16dd#
.	.	16e	16ee
8r	8B 8G	16g	16gg
.	.	16e	16ee
8AA	8r	16e	16ee
.	.	16d	16dd
8r	8A 8G	16d	16dd
.	.	16c#	16cc#
16D	2A 2F#	2d	2dd
16E	.	.	.
16F#	.	.	.
16G	.	.	.
16A	.	.	.
16B	.	.	.
16c#	.	.	.
16d	.	.	.
=43	=43	=43	=43
16c	2a [2d	1dd	2ff#
16B	.	.	.
16A	.	.	.
16G	.	.	.
16F#	.	.	.
16E	.	.	.
16D	.	.	.
16C	.	.	.
16BB	2b 2d]	.	2gg
16C	.	.	.
16D	.	.	.
16E	.	.	.
16F#	.	.	.
16G	.	.	.
16A	.	.	.
16B	.	.	.
=44	=44	=44	=44
8A	8a	8.dd	8.ff#
8A	8a	.	.
.	.	16ff#	16aa
8A	8a	8ee	8gg
8A	8g 8A	16dd	16ff#
.	.	16cc#	16ee
16D	2f# 2A	2dd	2dd
16E	.	.	.
16F#	.	.	.
16G	.	.	.
16A	.	.	.
16B	.	.	.
16c#	.	.	.
16d	.	.	.
=45	=45	=45	=45
16c	[2d	2a	2ff#
16B	.	.	.
16A	.	.	.
16G	.	.	.
16F#	.	.	.
16E	.	.	.
16D	.	.	.
16C	.	.	.
16BB	16d]	2b	2gg
16C	16e	.	.
16D	16f#	.	.
16E	16g	.	.
16F#	16a	.	.
16G	16b	.	.
16A	16cc	.	.
16B	16dd	.	.
=46	=46	=46	=46
16A	16cc	2ff#	2aa
16G	16b	.	.
16F#	16a	.	.
16E	16g	.	.
16D	16f#	.	.
16C	16e	.	.
16BB	16d	.	.
16AA	16c	.	.
16GG	16B	2gg	2bb
16AA	16c	.	.
16BB	16d	.	.
16C	16e	.	.
16D	16f#	.	.
16E	16g	.	.
16F#	16a	.	.
16G	16b	.	.
=47	=47	=47	=47
2AA	16e	16g	16cc#
.	16f#	16a	16dd
.	16g	16b	16ee
.	16a	16cc#	16ff#
.	16b	16dd	16gg
.	16cc#	16ee	16aa
.	16dd	16ff#	16bb
.	16ee	16gg	16ccc#
8BB	8dd	8ff#	8ddd
8r	8r	8r	8r
8G	8dd	8gg	8bb
8r	8r	8r	8r
=48	=48	=48	=48
8A	8dd	8ff#	8aa
8r	8r	8r	8r
8A#	8cc#	8ee	8gg
8r	8r	8r	8r
8B	8b	8dd	16gg
.	.	.	16ff#
8r	8r	8r	8r
8G	8g	8b	16ff#
.	.	.	16ee
8r	8r	8r	8r
=49	=49	=49	=49
8A	8f#	8a	16ee
.	.	.	16dd
8r	8r	8r	8r
8AA	8e	8g	16dd
.	.	.	16cc#
8r	8r	8r	8r
8D	8d	8f#	8dd
8r	8r	8r	8r
[4B	[4d	[4f	[4gg#
=50	=50	=50	=50
4B]	4d]	4f]	4gg#]
2A	4.d	4.f#	4.aa
.	8d	8f#	16gg
.	.	.	16ff#
4AA	8e	8g	8ee
.	8e	8g	16dd
.	.	.	16cc#
=51	=51	=51	=51
8D	8d	8f#	8dd
8r	8r	8r	8r
2B	2d	2f	2gg#
[4A	[4d	[4f#	[4aa
=52	=52	=52	=52
4A]	8d]	8f#]	8aa]
.	8d	8f#	16gg
.	.	.	16ff#
4AA	8e	8g	8ee
.	8e	8g	16dd
.	.	.	16cc#
8D	8d	8f#	8dd
4.r	8r	8r	8r
.	8A	8g	16ee
.	.	.	16gg
.	8A	8g	16ff#
.	.	.	16ee
=53	=53	=53	=53
4r	8d	8f#	8dd
.	8r	8r	8r
8A	8g	16ff#	8ccc#
.	.	16gg	.
8A	8g	16ff#	8ccc#
.	.	16ee	.
8d	8f#	8dd	8ddd
4.r	4.r	4.r	4.r
=54	=54	=54	=54
8.GG	8.B	8.d	8.e
16GG	16B	16d	16e
8.GG#	8.B	8.d	8.e
16GG#	16B	16d	16e
8.AA	8.A	8.d	8.f#
16AA	16A	16d	16f#
8.BB	8.G	8.d	8.g
16BB	16G	16d	16g
=55	=55	=55	=55
8AA	8A	8d	8f#
8r	8r	8r	8r
8AA	8G	8.c#	8.e
8r	8r	.	.
.	.	32B	32d
.	.	32c#	32e
4DD	4F#	4d	4d
8r	8r	8r	8r
8r	8r	8r	8d
=56	=56	=56	=56
4D	4F#	4d	4a
4F#	4A	4a	4dd
[2E	[2e	[2g	[2dd
=57	=57	=57	=57
2E_	2.e]	2g_	16dd]
.	.	.	16cc#
.	.	.	16ee
.	.	.	16dd
.	.	.	16ff#
.	.	.	16ee
.	.	.	16gg
.	.	.	16ff#
4E]	.	4g]	8aa
.	.	.	8gg
4r	4r	4r	8ff#
.	.	.	8ee
=58	=58	=58	=58
1r	1r	1r	8dd
.	.	.	8cc#
.	.	.	8b
.	.	.	8a
.	.	.	8g#
.	.	.	8a
.	.	.	8a#
.	.	.	16b
.	.	.	16g
=59	=59	=59	=59
4r	4r	4r	[2g
4D#	4A	4c	.
4D#	4A	4c	8g]
.	.	.	8f#
4D#	4A	4f#	8cc
.	.	.	8b
=60	=60	=60	=60
2D#	2A	2f#	2b
2r	2r	4.r	2r
.	.	8e	.
=61	=61	=61	=61
4E	4g	4b	4b
4C	4g	4ee	4a#
[2BB	[2g	[2ee	[2a#
=62	=62	=62	=62
1BB_	2g]	4ee]	2a#]
.	.	16dd#	.
.	.	16ee	.
.	.	16ff#	.
.	.	16ee	.
.	[2f#	8dd#	[2a
.	.	8ccc	.
.	.	8bb	.
.	.	8aa	.
=63	=63	=63	=63
4BB]	4f#]	8gg	4a]
.	.	8ff#	.
2.r	2.r	8ee	2.r
.	.	8dd#	.
.	.	8cc	.
.	.	8b	.
.	.	8cc	.
.	.	8a	.
=64	=64	=64	=64
4E	4d	8r	4g# 4B
.	.	8g#	.
2.r	2.r	8b	2.r
.	.	8dd	.
.	.	8ff	.
.	.	8ee	.
.	.	8bb	.
.	.	8dd	.
=65	=65	=65	=65
4AA	4c#	8r	4g 4A
.	.	8cc#	.
4r	4r	8ee	4r
.	.	8g	.
4D	4c	8r	4f# 4A
.	.	8f#	.
4r	4r	8a	4r
.	.	8c	.
=66	=66	=66	=66
4r	4r	[2c	4r
4GG	4F	.	4d
4GG	4F	8c]	4d
.	.	8B	.
4GG	4D	8g	4B
.	.	8f	.
=67	=67	=67	=67
2GG	2D	2f	2B
2r	4.r	2r	2r
.	8C	.	.
=68	=68	=68	=68
4EE	4G	2r	2r
4CC	4c	.	.
[2GG	[2c	[2d 2G	[2f 2G
=69	=69	=69	=69
2GG_	16c]	8d]	8f]
.	16B	.	.
.	16d	8c	8e
.	16c	.	.
.	16e	8B	8d
.	16d	.	.
.	16f	8A	8c
.	16e	.	.
8GG]	8g	8G	8B
4.r	8f	4.r	4.r
.	8e	.	.
.	8d	.	.
=70	=70	=70	=70
1r	8c	1r	1r
.	8B	.	.
.	2dd	.	.
.	16cc	.	.
.	16b	.	.
.	16a	.	.
.	16g	.	.
=71	=71	=71	=71
1r	16f	1r	1r
.	16g	.	.
.	16a	.	.
.	16g	.	.
.	16f	.	.
.	16e	.	.
.	16d	.	.
.	16c	.	.
.	16B	.	.
.	16c	.	.
.	16d	.	.
.	16c	.	.
.	16B	.	.
.	16A	.	.
.	16G	.	.
.	16F	.	.
=72	=72	=72	=72
8CC	8G 8E	4r	8B-
8C	4G 4E	.	4B-
8C	.	2gg	.
8C	4G 4E	.	4B-
8C	.	.	.
8C	4G 4E	.	4B-
8C	.	16ff	.
.	.	16ee	.
8C	[8G [8E	16dd	[8B-
.	.	16cc	.
=73	=73	=73	=73
8C	8G] 8E]	16b-	8B-]
.	.	16cc	.
8C	4G 4E	16dd	4B-
.	.	16cc	.
8C	.	16b-	.
.	.	16a	.
8C	4G 4E	16g	4B-
.	.	16f	.
8C	.	16e	.
.	.	16f	.
8C	4G 4E	16g	4B-
.	.	16f	.
8C	.	16e	.
.	.	16d	.
8C	[8G [8E	16c	8B-
.	.	16B-	.
=74	=74	=74	=74
8CC#	8G] 8E]	8A	8A
8C#	4G 4E	4A	8r
8C#	.	.	2eee
8C#	4G 4E	4A	.
8C#	.	.	.
8C#	4G 4E	4A	.
8C#	.	.	16ddd
.	.	.	16ccc#
8C#	[8G [8E	[8A	16bb
.	.	.	16aa
=75	=75	=75	=75
8C#	8G] 8E]	8A]	16gg
.	.	.	16aa
8C#	4G 4E	4A	16bb-
.	.	.	16aa
8C#	.	.	16gg
.	.	.	16ff
8C#	4G 4E	4A	16ee
.	.	.	16dd
8C#	.	.	16cc#
.	.	.	16dd
8C#	4G 4E	4A	16ee
.	.	.	16dd
8C#	.	.	16cc#
.	.	.	16b-
8C#	8G 8E	8A	16a
.	.	.	16g
=76	=76	=76	=76
8DD	8F#	8A	8f#
8D	4c 4D	8r	4f# 4A
8D	.	2aa	.
8D	4c 4D	.	4f# 4A
8D	.	.	.
8D	4c 4D	.	4f# 4A
8D	.	16gg	.
.	.	16ff#	.
8D	[8c [8D	16ee	[8f# [8A
.	.	16dd	.
=77	=77	=77	=77
8D	8c] 8D]	16cc	8f#] 8A]
.	.	16dd	.
8D	4c 4D	16ee	4f# 4A
.	.	16dd	.
8D	.	16cc	.
.	.	16b	.
8D	4c 4D	16a	4f# 4A
.	.	16g	.
8D	.	16f#	.
.	.	16g	.
8D	4c 4D	16a	4f# 4A
.	.	16g	.
8D	.	16f#	.
.	.	16e	.
8D	8c 8D	16d	8f# 8A
.	.	16c	.
=78	=78	=78	=78
8DD#	8B	8B	8f# 8A
8D#	4A 4F#	4B	8r
8D#	.	.	2ff#
8D#	4A 4F#	4B	.
8D#	.	.	.
8D#	4A 4F#	4B	.
8D#	.	.	16ee
.	.	.	16dd#
8D#	[8A [8F#	[8B	16cc#
.	.	.	16b
=79	=79	=79	=79
8D#	8A] 8F#]	8B]	16a
.	.	.	16b
8D#	4A 4F#	4B	16cc
.	.	.	16b
8D#	.	.	16a
.	.	.	16g
8D#	4A 4F#	4B	16f#
.	.	.	16e
8D#	.	.	16d#
.	.	.	16e
8D#	4A 4F#	4B	16f#
.	.	.	16e
8D#	.	.	16d#
.	.	.	16c
8D#	8A 8F#	8B	16B
.	.	.	16A
=80	=80	=80	=80
4E	8G 8E	8B	8G
.	4e	16g	4b
.	.	16a	.
4r	.	8g	.
.	8e	8g	8b
4C	8r	8r	8r
.	4g	16a#	4ee
.	.	16b	.
4r	.	8a#	.
.	8e	8a#	8ee
=81	=81	=81	=81
4BB	8r	8r	8r
.	4f#	16b	4dd#
.	.	16cc	.
4r	.	8b	.
.	8f#	8b	8dd#
4D#	8r	8r	8r
.	4f#	16b	4aa
.	.	16cc	.
4r	.	8b	.
.	8f#	8b	8aa
=82	=82	=82	=82
8E	8e	8b	4gg#
8E	8e	8b	.
8E	8e	8b	4gg
8E	8e	8b	.
8A	8c	8cc	4ff
8A	8a	8cc	.
8B	8g	8b	8.ee
8B	8f#	8a	.
.	.	.	16dd#
=83	=83	=83	=83
8c	8e	8g	4ee
8c	8e	8g	.
8A	8e	8a	4cc
8A	8e	8a	.
8B	8e	8g	4b
8B	8e	8g	.
8BB	8d#	8f#	4aa
8BB	8d#	8f#	.
=84	=84	=84	=84
8E	8e	8e	4gg#
8E	8e	8b	.
8E	8e	8b	4gg
8E	8e	8b	.
8A	8c	8cc	4ff
8A	8a	8cc	.
8B	8g	8b	8.ee
8B	8f#	8a	.
.	.	.	16dd#
=85	=85	=85	=85
8c	8e	8g	4ee
8c	8e	8g	.
8A	8e	8a	4cc
8A	8e	8a	.
8B	8e	8g	4b
8B	8e	8g	.
8BB	8A	8f#	4d#
8BB	8A	8f#	.
=86	=86	=86	=86
8E	8G	8e	4e
8r	8r	8r	.
8BB	8A	16f#	2.r
.	.	16a	.
8BB	8A	16g	.
.	.	16f#	.
8E	8G	8e	.
8r	8r	8r	.
8B	16f#	8dd#	.
.	16a	.	.
8B	16g	8dd#	.
.	16f#	.	.
=87	=87	=87	=87
8e	8e	8ee	4r
8r	8r	8r	.
8B	8d#	8a	16ff#
.	.	.	16aa
8B	8d#	8a	16gg
.	.	.	16ff#
8c	8e	8g	8ee
4.r	4.r	4.r	4.r
=88	=88	=88	=88
8.AA	8.c	8.e	8.f#
16AA	16c	16e	16f#
8.AA#	8.c#	8.e	8.f#
16AA#	16c#	16e	16f#
8.BB	8.B	8.e	8.g
16BB	16B	16e	16g
8.C	8.A	8.e	8.a
16C	16A	16e	16a
=89	=89	=89	=89
8BB	8B	8e	8g
8r	8r	8r	8r
8BB	8A	8.d#	8.f#
8r	8r	.	.
.	.	32c#	32e
.	.	32d#	32f#
4EE	4G	4e	4e
4r	4r	4r	4r
=90	=90	=90	=90
1GG	2..D	[1B	[2f
.	.	.	8f]
.	.	.	16g
.	.	.	16a
.	.	.	16g
.	.	.	16f
.	16E	.	16e
.	16F	.	16d
=91	=91	=91	=91
8C	8F	8B]	8d
4.r	8E	8c	8c
.	4r	4r	4.cc
2D	4.A	[2f#	.
.	.	.	16dd
.	.	.	16ee
.	.	.	16dd
.	.	.	16cc
.	16B	.	16b
.	16c	.	16a
=92	=92	=92	=92
8G	8c	8f#]	8a
4.r	8B	8g	8g
.	4r	4r	4.gg
2A	4.e	2cc#	.
.	.	.	16aa
.	.	.	16bb
.	.	.	16aa
.	.	.	16gg
.	16f#	.	16ff#
.	16g	.	16ee
=93	=93	=93	=93
8B	8f#	8dd	4dd
8B	8f#	8dd	.
8A	8f#	8cc	4dd#
8A	8f#	8cc	.
8G	8g	8b	4ee
8G	8g	8b	.
8F#	8d#	8a	4ff#
8F#	8d#	8a	.
=94	=94	=94	=94
8E	8e	8g	8aa
8E	8e	8g	8gg
8G	8B	8b	8.ff#
8G	8g	8b	.
.	.	.	16ee
8A	8f#	8a	4dd
8A	8f#	8a	.
8A#	8e	8g	4cc#
8A#	8e	8g	.
=95	=95	=95	=95
8B	8d	8f#	4dd
8B	8d	8f#	.
8A	8c	8f#	4dd#
8A	8c	8f#	.
8G	8B	8e	4ee
8G	8B	8e	.
8F#	8A	8d#	4ff#
8F#	8A	8d#	.
=96	=96	=96	=96
8E	8G	8e	8gg
8E	8G	8e	16aa
.	.	.	16bb
8G	8B	8e	16aa
.	.	.	16gg
8G	8B	8g	16ff#
.	.	.	16ee
8A	8A	8f#	4dd
8A	8A	8f#	.
8AA	8G	8e	4cc#
8AA	8G	8e	.
=97	=97	=97	=97
8D	8F#	8d	8dd
8r	8r	8r	8r
8AA	8G	8c#	16e
.	.	.	16g
8AA	8G	8c#	16f#
.	.	.	16e
8D	8F#	8d	8d
8r	8r	8r	8r
8A	16e	8g	8cc#
.	16g	.	.
8A	16f#	8g	8cc#
.	16e	.	.
=98	=98	=98	=98
8d	8d	8f#	8dd
8r	8r	8r	8r
8A	8g	16ee	8ccc#
.	.	16gg	.
8A	8g	16ff#	8ccc#
.	.	16ee	.
8B	8f#	8dd	8ddd
4.r	4.r	4.r	4.r
=99	=99	=99	=99
8.GG	8.B	8.d	8.e
16GG	16B	16d	16e
8.GG#	8.B	8.d	8.e
16GG#	16B	16d	16e
8.AA	8.A	8.d	8.f#
16AA	16A	16d	16f#
8.BB	8.G	8.d	8.g
16BB	16G	16d	16g
=100	=100	=100	=100
8AA	8A	8d	8f#
8r	8r	8r	8r
8AA	8G	8.c#	8.e
8r	8r	.	.
.	.	32B	32d
.	.	32c#	32e
4DD	4F#	4d	4d
4r	4r	4r	4r
=101	=101	=101	=101
2r	2r	8f#	8a
.	.	8r	8r
.	.	8.e	8.g
.	.	32d	32f#
.	.	32e	32g
8F#	8A	4d	4f#
8r	8r	.	.
8.E	8.G	4r	4r
32D	32F#	.	.
32E	32G	.	.
=102	=102	=102	=102
4D	4F#	8a	8cc
.	.	8r	8r
4r	4r	8.g	8.b
.	.	32f#	32a
.	.	32g	32b
8A	8c	4f#	4a
8r	8r	.	.
8.G	8.B	4r	4r
32F#	32A	.	.
32G	32B	.	.
=103	=103	=103	=103
4F#	4A	8cc	8ee
.	.	8r	8r
2.r	2r	8.b	8.dd
.	.	32a	32cc
.	.	32b	32dd
.	.	4a	4cc
.	4d	4f#	4aa
=104	=104	=104	=104
16d	[2a	[2cc	[2gg
16c#	.	.	.
16d	.	.	.
16c#	.	.	.
16d	.	.	.
16c#	.	.	.
16d	.	.	.
16c#	.	.	.
[2d	16a]	16cc]	8gg]
.	16g#	16b	.
.	16a	16cc	8ff#
.	16g#	16b	.
.	16a	16cc	8ccc
.	16g#	16b	.
.	16a	16cc	8aa
.	16g#	16b	.
=105	=105	=105	=105
16d]	[2a	[2cc	[2gg
16c#	.	.	.
16d	.	.	.
16c#	.	.	.
16d	.	.	.
16c#	.	.	.
16d	.	.	.
16c#	.	.	.
[2d	16a]	16cc]	8gg]
.	16g#	16b	.
.	16a	16cc	8ff#
.	16g#	16b	.
.	16a	16cc	8ccc
.	16g#	16b	.
.	16a	16cc	8aa
.	16g#	16b	.
=106	=106	=106	=106
1d]	4a	4cc	8gg
.	.	.	4ff#
.	4g	4b	.
.	.	.	4ee
.	4f#	4a	.
.	.	.	4dd
.	4e	4g	.
.	.	.	[8cc
=107	=107	=107	=107
1D	4d	4f#	8cc]
.	.	.	4b
.	4c	4e	.
.	.	.	4a
.	4B	4d	.
.	.	.	4g
.	4A	4c	.
.	.	.	8f#
=108	=108	=108	=108
4GG	4G	4B	4dd
4B	4d	4dd	4gg
4.A	4.a	4.cc	4gg
.	.	.	8ff#
8G	8g	8b	8ee
=109	=109	=109	=109
4F#	4f#	4a	8dd
.	.	.	8dd#
4G#	2e	4b	8ee
.	.	.	8b
[4A	.	8g#	8dd
.	.	8a	8cc#
8A]	8A	8e	8cc
8r	8r	8r	8r
=110	=110	=110	=110
4AA	4A	2e	8.cc
.	.	.	32dd
.	.	.	32ee
4C	8E	.	16dd
.	.	.	16cc
.	8c	.	16b
.	.	.	16a
4.D	4B	4.d	4g
.	8A	.	8f#
8E	8G	8c#	8e
=111	=111	=111	=111
2F#	4A	4d	8d
.	.	.	8ee
.	[2d	4.a	8dd
.	.	.	8cc#
[4G	.	.	8cc
.	.	8f#	8a#
8G]	8d]	8g	8b
8r	8r	8r	8r
=112	=112	=112	=112
2r	4a	1r	2r
.	8cc	.	.
.	16b	.	.
.	16a	.	.
4C	4f#	.	[4d 4A
8BB	8g	.	8d] 8B
8r	8r	.	8r
=113	=113	=113	=113
2r	2r	4a	1r
.	.	8cc	.
.	.	16b	.
.	.	16a	.
4c	4a [4d	4ff#	.
8B	8b 8d]	8gg	.
8r	8r	8r	.
=114	=114	=114	=114
2r	2r	2r	4aa
.	.	.	8ccc
.	.	.	16bb
.	.	.	16aa
2C#	2A	[2g	4ddd#
.	.	.	4eee
=115	=115	=115	=115
4D	4B	4g]	4.gg
4D#	4c	4f#	.
.	.	.	16bb
.	.	.	16aa
4E	4B	4g	4gg
4r	4r	4r	4r
=116	=116	=116	=116
2d	2g#	2b	4.ee
.	.	.	16gg
.	.	.	16ff
8c	8a	8cc	8ee
4.r	4.r	4.r	4.r
=117	=117	=117	=117
2r	2r	2r	16g#
.	.	.	16a
.	.	.	16cc
.	.	.	16b
.	.	.	16dd
.	.	.	16cc
.	.	.	16b
.	.	.	16a
2C#	2B-	2g	8dd#
.	.	.	8ee
.	.	.	8ff#
.	.	.	8gg
=118	=118	=118	=118
4D	4B	4d	4.g
4DD	4F#	4c	.
.	.	.	16b
.	.	.	16a
4GG	4G	4B	4g
4r	4r	8r	4r
.	.	8G	.
=119	=119	=119	=119
4GG	4B	4d	2..r
4BB	4d	4g	.
4.AA	4.c	4g	.
.	.	8f#	.
8GG	8B	8e	8g
=120	=120	=120	=120
4FF#	4A	8d	4dd
.	.	8d#	.
8GG	4B	8e	4gg
8G	.	8B	.
4B	4r	4d	4gg
8A	[4d	8c	8ff#
8G	.	8B	8ee
=121	=121	=121	=121
4F#	8d]	4A	8dd
.	8a	.	8dd#
4G#	8b	4.r	8ee
.	8g#	.	8b
2A	4e	.	4dd
.	.	8g#	.
.	[4A	8a	8cc#
.	.	8e	8r
=122	=122	=122	=122
2D	4A]	4g	8r
.	.	.	8cc
.	2d	8f#	8dd
.	.	4r	8a
2G	.	.	4a#
.	.	8f#	.
.	8G	8g	8b
.	[8b	8d#	8r
=123	=123	=123	=123
8C	8b]	8e	8r
8c	8a	8ee	8aa
8B	8g#	8dd	8bb
8A	8a	8cc	8ccc
8r	4.d	4b	4gg
8d	.	.	.
8D	.	8a	8ff#
8E	8G	8c#	[8ee
=124	=124	=124	=124
4F#	4A	4d	8ee]
.	.	.	8dd
4r	4r	4r	8cc#
.	.	.	8cc
4G	4B	4d	8b
.	.	.	8gg
4r	4r	4r	8ff#
.	.	.	8ff
=125	=125	=125	=125
1r	2r	8r	[1ee
.	.	8e	.
.	.	8f	.
.	.	8f#	.
.	8r	8g	.
.	8e	8g#	.
.	8f	8a	.
.	8f#	8a#	.
=126	=126	=126	=126
8r	8g	8b	4ee]
8E	8g#	8ee	.
8F	4a	8dd	[2.eee
8F#	.	8cc	.
8G	8g	8b	.
8G#	8dd	8ff	.
8A	8cc	8ee	.
8B	8b	8dd	.
=127	=127	=127	=127
4c	4a	4cc	8eee]
.	.	.	8eee
2.r	2.r	4.r	8ddd#
.	.	.	8ddd
.	.	.	8ccc#
.	.	8ee	8ccc
.	.	8dd	8bb
.	.	8cc	8aa
=128	=128	=128	=128
8r	8r	8b	8gg#
8c	8e	8cc	8aa
8B	8d	8dd	8bb
8A	8c	8ee	8ccc
8D	4d	4b	4gg
8d	.	.	.
[4e-	8r	8a	8ff#
.	8A	8c	8r
=129	=129	=129	=129
4e-]	2a	2cc	8r
.	.	.	16ccc
.	.	.	16bb
4.r	.	.	16ddd
.	.	.	16ccc
.	.	.	16bb-
.	.	.	16aa
.	4.r	4.r	4gg
8d	.	.	.
[4e-	.	.	8ff#
.	8A	8c	8r
=130	=130	=130	=130
4e-]	[2a	[2cc	8r
.	.	.	16ccc
.	.	.	16bb
4.r	.	.	16ddd
.	.	.	16ccc
.	.	.	16bb-
.	.	.	16aa
.	8a]	8cc]	16gg
.	.	.	16ff#
8e-	4f#	4a	16ccc
.	.	.	16bb
[4d	.	.	16ddd
.	.	.	16ccc
.	8g	8b-	16bb-
.	.	.	16aa
=131	=131	=131	=131
8d]	8a	8cc	16gg
.	.	.	16ff#
8e-	4f#	4a	16ccc
.	.	.	16bb
4.d	.	.	16ddd
.	.	.	16ccc
.	8g	8b-	16bb-
.	.	.	16aa
.	[2a	[2cc	[2gg
8D	.	.	.
8d	.	.	.
8d	.	.	.
=132	=132	=132	=132
4d	4a_	4cc_	4gg]
2.r	16a]	16cc]	16ff#
.	16g	16b	16gg
.	16f#	16a	16aa
.	16e	16g	16bb
.	4d	4f#	4ccc
.	4r	8r	4r
.	.	8d	.
=133	=133	=133	=133
4G	4d	4b	1r
4G	4d	4b	.
2G	2d	16b	.
.	.	16a#	.
.	.	16b	.
.	.	16a#	.
.	.	8b	.
.	.	8b	.
=134	=134	=134	=134
8r	8r	4.dd	1r
8GG	8B	.	.
4.G	8b	.	.
.	8d	8b	.
.	8r	4.dd	.
8GG	8B	.	.
4G	8b	.	.
.	8d	8b	.
=135	=135	=135	=135
4C	4e	4a	1r
4C	4e	4a	.
2C	2e	16a	.
.	.	16g#	.
.	.	16a	.
.	.	16g#	.
.	.	8a	.
.	.	8a	.
=136	=136	=136	=136
8r	8r	4.cc	1r
8C	8A	.	.
4.c	8e	.	.
.	8c	8a	.
.	8r	4.cc	.
8C	8A	.	.
4c	8a	.	.
.	8f#	8a	.
=137	=137	=137	=137
2B	8r	4g	1r
.	4d	.	.
.	.	4g#	.
.	4d	.	.
2F#	.	4a	.
.	4d	.	.
.	.	4a#	.
.	8d	.	.
=138	=138	=138	=138
4G	8d	4b	2..r
.	8g	.	.
4C	16a	16cc	.
.	16b	16dd	.
.	16cc	16ee	.
.	16a	16cc	.
16D	4g	4b	.
16C#	.	.	.
16D	.	.	.
16C#	.	.	.
8D	8f#	8a	.
8r	8r	8r	8dd
=139	=139	=139	=139
8r	4g	4dd	4bb
8GG	.	.	.
8r	4g	4dd	4bb
8GG	.	.	.
8r	16g	2dd	16bb
.	16f#	.	16aa#
8GG	16g	.	16bb
.	16f#	.	16aa#
8GG	8g	.	8bb
8r	8g	.	8bb
=140	=140	=140	=140
8r	4.b	8r	4.ddd
8GG	.	8dd	.
4.G	.	4.gg	.
.	8g	.	8bb
.	4.b	.	4.ddd
8GG	.	8dd	.
4G	.	4gg	.
.	8g	.	8bb
=141	=141	=141	=141
8r	4f#	4dd	4aa
8C	.	.	.
8r	4f#	4dd	4aa
8C	.	.	.
8r	16f#	2dd	16aa
.	16e#	.	16gg#
8C	16f#	.	16aa
.	16e#	.	16gg#
8C	8f#	.	8aa
8r	8f#	.	8aa
=142	=142	=142	=142
8r	4.a	8r	4.ccc
8CC	.	8d	.
4.C	.	4.dd	.
.	8f#	.	8aa
.	4.a	.	4.ccc
8C	.	8d	.
4c	.	[4dd	.
.	8f#	.	8aa
=143	=143	=143	=143
2B	4g	4dd]	4gg
.	4dd	4ff	4gg#
4c	4cc	4ee	4aa
4c#	4ee	[4gg	4bb-
=144	=144	=144	=144
2d	4dd	4gg]	4bb
.	4cc	8aa	8ccc
.	.	16gg	16bb
.	.	16ff#	16aa
4g	4b	4gg	16gg
.	.	.	16ff#
.	.	.	16ee
.	.	.	16dd
4r	4r	4r	16cc
.	.	.	16b
.	.	.	16a
.	.	.	16g
=145	=145	=145	=145
4E	2B	4g	4G
4D	.	4g#	4f
4C	4c	4a	4e
4C#	[4g	4b-	4ee
=146	=146	=146	=146
2D	4g]	4b	4d
.	8a	8cc	4ff#
.	8c	16b	.
.	.	16a	.
8GG	8B	8g	8gg
4.r	4.r	4.r	8r
.	.	.	16gg
.	.	.	16ff#
.	.	.	16ee
.	.	.	16dd
=147	=147	=147	=147
8F#	8d	8a	16cc#
.	.	.	16dd
8F#	8d	8a	16cc#
.	.	.	16dd
8F#	8d	8a	16cc#
.	.	.	16dd
8r	8r	8r	16ee
.	.	.	16cc
8G	8d	8g	16a#
.	.	.	16b
8G	8d	8g	16a#
.	.	.	16b
8G	8d	8g	16a#
.	.	.	16b
8r	8r	8r	16dd
.	.	.	16b
=148	=148	=148	=148
8C	8r	8r	16g#
.	.	.	16a
8r	8c	8e	16g#
.	.	.	16a
8AA	8r	8r	16g#
.	.	.	16a
8r	8c	8e	16cc
.	.	.	16a
4D	4d	4A	16g
.	.	.	16f#
.	.	.	16e
.	.	.	16d
4r	4r	16g	16gg
.	.	16f#	16ff#
.	.	16e	16ee
.	.	16d	16dd
=149	=149	=149	=149
8FF#	8A 8D	16c#	16cc#
.	.	16d	16dd
8FF#	8A 8D	16c#	16cc#
.	.	16d	16dd
8FF#	8A 8D	16c#	16cc#
.	.	16d	16dd
8r	8r	16e	16ee
.	.	16c	16cc
8GG	8G 8D	16A#	16a#
.	.	16B	16b
8GG	8G 8D	16A#	16a#
.	.	16B	16b
8GG	8G 8D	16A#	16a#
.	.	16B	16b
8r	8r	16d	16dd
.	.	16B	16b
=150	=150	=150	=150
8C	8r	16B	16b
.	.	16A	16a
8r	8g 8G	16G#	16g#
.	.	16A	16a
8D	8r	16c	16cc
.	.	16B	16b
8r	8g 8G	16A#	16a#
.	.	16B	16b
8E	8r	16d	16dd
.	.	16c	16cc
4.r	8g 8G	16B	16b
.	.	16c	16cc
.	8g 8G	16B	16b
.	.	16c	16cc
.	8g 8G	16e	16ee
.	.	16c	16cc
=151	=151	=151	=151
8D	8r	16c	16cc
.	.	16B	16b
8r	8g 8G	16A#	16a#
.	.	16B	16b
8E	8r	16d	16dd
.	.	16c	16cc
8r	8g 8G	16B	16b
.	.	16c	16cc
8F	8r	16e	16ee
.	.	16d	16dd
4.r	8g 8G	16c#	16cc#
.	.	16d	16dd
.	8g 8G	16c#	16cc#
.	.	16d	16dd
.	8g 8G	16f	16ff
.	.	16d	16dd
=152	=152	=152	=152
8E	8r	16d	16dd
.	.	16c	16cc
8r	8g 8G	16B	16b
.	.	16c	16cc
8BB	8r	16e	16ee
.	.	16d	16dd
8r	8g 8G	16c#	16cc#
.	.	16d	16dd
8C	8r	16f	16ff
.	.	16e	16ee
4.r	8g 8G	16d#	16dd#
.	.	16e	16ee
.	8g 8G	16d#	16dd#
.	.	16e	16ee
.	8g 8G	16g	16gg
.	.	16e	16ee
=153	=153	=153	=153
8A	8r	16g	16gg
.	.	16f#	16ff#
2..r	8d 8c	16e#	16ee#
.	.	16f#	16ff#
.	8d 8c	16e#	16ee#
.	.	16f#	16ff#
.	8d 8A	16cc	16aa
.	.	16a	16ff#
.	16G	2b	2gg
.	16A	.	.
.	16B	.	.
.	16c	.	.
.	16d	.	.
.	16e	.	.
.	16f#	.	.
.	16g	.	.
=154	=154	=154	=154
1r	16f	[2gg 2dd	2bb
.	16e	.	.
.	16d	.	.
.	16c	.	.
.	16B	.	.
.	16A	.	.
.	16G	.	.
.	16F	.	.
.	16E	2gg] 2ee	2ccc
.	16F	.	.
.	16G	.	.
.	16A	.	.
.	16B	.	.
.	16c	.	.
.	16d	.	.
.	16e	.	.
=155	=155	=155	=155
2r	8d	8.gg	8.bb
.	8d	.	.
.	.	16bb	16ddd
.	8d	8aa	8ccc
.	8d	16gg	16bb
.	.	16ff#	16aa
16G	2d 2B	2gg	2gg
16A	.	.	.
16B	.	.	.
16c	.	.	.
16d	.	.	.
16e	.	.	.
16f#	.	.	.
16g	.	.	.
=156	=156	=156	=156
16f	2r	2d 2G	2b
16e	.	.	.
16d	.	.	.
16c	.	.	.
16B	.	.	.
16A	.	.	.
16G	.	.	.
16F	.	.	.
16E	16G	2e	2cc
16F	16A	.	.
16G	16B	.	.
16A	16c	.	.
16B	16d	.	.
16c	16e	.	.
16d	16f	.	.
16e	16g	.	.
=157	=157	=157	=157
16d	16f	2b [2g	2dd
16c	16e	.	.
16B	16d	.	.
16A	16c	.	.
16G	16B	.	.
16F	16A	.	.
16E	16G	.	.
16D	16F	.	.
16C	16E	2cc 2g]	2ee
16D	16F	.	.
16E	16G	.	.
16F	16A	.	.
16G	16B	.	.
16A	16c	.	.
16B	16d	.	.
16c	16e	.	.
=158	=158	=158	=158
8B	8g	16dd	16ff
.	.	16cc	16ee
4.r	4.r	16b	16dd
.	.	16a	16cc
.	.	16g	16b
.	.	16f	16a
.	.	16e	16g
.	.	16d	16f
16c	16e	8c	8e
16B	16d	.	.
16A	16c	4.r	4.r
16G	16B	.	.
16F	16A	.	.
16E	16G	.	.
16D	16F	.	.
16C	16E	.	.
=159	=159	=159	=159
2D	16A	16c	16f#
.	16B	16d	16g
.	16c	16e	16a
.	16d	16f#	16b
.	16e	16g	16cc
.	16f#	16a	16dd
.	16g	16b	16ee
.	16a	16cc	16ff#
16E	8g	8b	8gg
16F#	.	.	.
16G	4.r	4.r	4.r
16A	.	.	.
16B	.	.	.
16c#	.	.	.
16d#	.	.	.
16e	.	.	.
=160	=160	=160	=160
2A	16e	16g	16cc#
.	16f#	16a	16dd
.	16g	16b	16ee
.	16a	16cc#	16ff#
.	16b	16dd	16gg
.	16cc#	16ee	16aa
.	16dd	16ff#	16bb
.	16ee	16gg	16ccc#
8D	8dd	8ff#	8ddd
8r	8r	8r	8r
8F#	8dd	8aa	8ccc
8r	8r	8r	8r
=161	=161	=161	=161
8G	8dd	8gg	8bb
8r	8r	8r	8r
8c	8cc	8ee	8aa
8r	8r	8r	8r
8d	8b	8dd	8gg
8r	8r	8r	8r
8d#	8a	8cc	8ff#
8r	8r	8r	8r
=162	=162	=162	=162
8e	8g	8b	16aa
.	.	.	16gg
8r	8r	8r	8r
8F#	8a	8cc	16ff#
.	.	.	16ee
8r	8r	8r	8r
8G	8d	8b	16cc#
.	.	.	16dd
8r	8r	8r	8r
8C	8e	8a	16dd
.	.	.	16cc
8r	8r	8r	8r
=163	=163	=163	=163
8D	8d	8g	16cc
.	.	.	16b
8r	8r	8r	8r
8D	8c	8f#	16b
.	.	.	16a
8r	8r	8r	8r
8GG	8B	8g	8g
8r	8r	8r	8r
[4E	[4G	[4B-	[4cc#
=164	=164	=164	=164
4E]	4G]	4B-]	4cc#]
2D	4.G	4.B	4.dd
.	8G	8B	16cc
.	.	.	16b
4DD	8A	8c	8a
.	8A	8c	16g
.	.	.	16f#
=165	=165	=165	=165
8GG	8G	8B	8g
8r	8r	8r	8r
2e	2g	2b-	2ccc#
[4d	[4g	[4b	[4ddd
=166	=166	=166	=166
4d]	8g]	8b]	8ddd]
.	8g	8b	16ccc
.	.	.	16bb
4D	8a	8cc	8aa
.	8a	8cc	16gg
.	.	.	16ff#
4G	8g	8b	8gg
.	8r	8r	8r
4r	8D	8c	16a
.	.	.	16cc
.	8D	8c	16b
.	.	.	16a
=167	=167	=167	=167
4r	8G	8B	8g
.	8r	8r	8r
8D	8c	16a	8ff#
.	.	16cc	.
8D	8c	16b	8ff#
.	.	16a	.
8G	8B	8g	8gg
4.r	8r	8r	8r
.	8D	8c	16a
.	.	.	16cc
.	8D	8c	16b
.	.	.	16a
=168	=168	=168	=168
4r	8G	8B	8g
.	8r	8r	8r
8d	16a	8ff#	8ccc
.	16cc	.	.
8d	16b	8ff#	8ccc
.	16a	.	.
8e	8g	8gg	8bb
4.r	4.r	4.r	4.r
=169	=169	=169	=169
8.C	8.e	8.g	8.a
16C	16e	16g	16a
8.C#	8.e	8.g	8.a
16C#	16e	16g	16a
8.D	8.d	8.g	8.b
16D	16d	16g	16b
8.E	8.c	8.g	8.cc
16E	16c	16g	16cc
=170	=170	=170	=170
8D	8d	8g	8b
8r	8r	8r	8r
8D	8d 8c	8.f#	8.a
8r	8r	.	.
.	.	32e	32g
.	.	32f#	32a
4GG	4d 4B	4g	4g
8r	8r	8r	8r
8r	8r	8r	8r
==	==	==	==
*-	*-	*-	*-
!!!RWG1: This file contains only pitch and duration data.
!!!RWG2: Transposing instruments are not transposed.
!!!RWG3: Spines may have incompatible meters.
!!!RWG4: Durations of rests and tied notes may be interpreted.
!!!RWG: Key is interpreted using the Humdrum key tool.
!!!AFT: stage1
!!!END: 1997/04/15
!!!KEY: 1043894346
!!!EMD: Converted from MuseData to Humdrum Dec 16, 2000, by Andreas Kornstaedt using muse2kern.
!!!EMD: Manual editing by Craig Sapp, Nov 2001
